X:8
T:There's Something About Kerry
C:Gillian Frame and Padraig O'Neill
D:Glasgow Skyline
N:pjoneill2001@yahoo.com
Z:robin.beech@mcgill.ca
S:Victoria Bar Session, Glasgow
R:polka
M:2/4
L:1/8
K:D
AD F/E/D | EF GB | AD F/E/D | GB Ac | dD F/E/D | EF GB  | Ad Ae | Af Ag ::
a>g fa | gf ec | d>e f/e/d | ag fg | a/b/a/g/ fa | gf ec |  Ad Ae | Af Ag :|
